; generated by Slic3r 1.3.1-dev (Build 18ddd3a36dc69d81fb9b7440498bff9e1dde8b7e) on 2023-11-03 at 15:40:39

; external perimeters extrusion width = 0.44mm (4.51mm^3/s)
; perimeters extrusion width = 0.48mm (10.05mm^3/s)
; infill extrusion width = 0.48mm (10.05mm^3/s)
; solid infill extrusion width = 0.48mm (7.54mm^3/s)
; top infill extrusion width = 0.48mm (7.54mm^3/s)

M107
G92 E0
M190 S90 ; set bed temperature and wait for it to be reached
M104 S225 ; set temperature
G28 ; home all axes
G1 Z5 F5000 ; lift nozzle

; Filament gcode

M109 S225 ; set temperature and wait for it to be reached
G21 ; set units to millimeters
G90 ; use absolute coordinates
M82 ; use absolute distances for extrusion
G92 E0
G1 Z0.350 F7800.000
G1 E-2.00000 F2400.00000
G92 E0
G1 X130.794 Y152.568 F7800.000
G1 E4.00000 F2400.00000
G1 F1800.000
G1 X154.111 Y129.954 E7.02230
G1 X155.254 Y128.966 E7.16286
G1 X155.904 Y128.477 E7.23853
G1 X156.743 Y127.917 E7.33244
G1 X157.444 Y127.504 E7.40809
G1 X158.341 Y127.041 E7.50199
G1 X159.083 Y126.709 E7.57766
G1 X160.026 Y126.350 E7.67156
G1 X160.800 Y126.104 E7.74716
G1 X161.778 Y125.852 E7.84107
G1 X162.576 Y125.693 E7.91676
G1 X163.575 Y125.553 E8.01067
G1 X164.385 Y125.485 E8.08629
G1 X165.394 Y125.457 E8.18019
G1 X166.206 Y125.480 E8.25582
G1 X167.212 Y125.565 E8.34973
G1 X168.017 Y125.679 E8.42539
G1 X169.007 Y125.876 E8.51929
G1 X169.794 Y126.080 E8.59493
G1 X170.756 Y126.387 E8.68884
G1 X171.515 Y126.677 E8.76448
G1 X172.436 Y127.089 E8.85838
G1 X173.159 Y127.463 E8.93406
G1 X174.028 Y127.976 E9.02797
G1 X174.703 Y128.428 E9.10358
G1 X175.509 Y129.035 E9.19748
G1 X176.130 Y129.560 E9.27314
G1 X177.146 Y130.536 E9.40424
G1 X199.788 Y154.458 E12.46892
G1 X200.716 Y155.539 E12.60146
G1 X201.204 Y156.189 E12.67714
G1 X201.766 Y157.030 E12.77124
G1 X202.179 Y157.731 E12.84686
G1 X202.642 Y158.629 E12.94096
G1 X202.974 Y159.372 E13.01661
G1 X203.335 Y160.317 E13.11071
G1 X203.581 Y161.091 E13.18636
G1 X203.833 Y162.071 E13.28046
G1 X203.992 Y162.868 E13.35609
G1 X204.133 Y163.869 E13.45019
G1 X204.201 Y164.680 E13.52585
G1 X204.229 Y165.691 E13.61995
G1 X204.206 Y166.503 E13.69559
G1 X204.120 Y167.511 E13.78969
G1 X204.006 Y168.316 E13.86533
G1 X203.809 Y169.308 E13.95943
G1 X203.605 Y170.095 E14.03508
G1 X203.298 Y171.058 E14.12918
G1 X203.007 Y171.818 E14.20482
G1 X202.594 Y172.741 E14.29892
G1 X202.221 Y173.463 E14.37456
G1 X201.706 Y174.334 E14.46866
G1 X201.254 Y175.010 E14.54430
G1 X200.646 Y175.817 E14.63840
G1 X200.121 Y176.438 E14.71404
G1 X199.138 Y177.461 E14.84608
G1 X175.172 Y200.094 E17.91319
G1 X174.098 Y201.015 E18.04480
G1 X173.448 Y201.504 E18.12046
G1 X172.609 Y202.064 E18.21437
G1 X171.908 Y202.477 E18.29002
G1 X171.011 Y202.940 E18.38392
G1 X170.269 Y203.272 E18.45958
G1 X169.326 Y203.631 E18.55349
G1 X168.552 Y203.878 E18.62909
G1 X167.574 Y204.130 E18.72300
G1 X166.776 Y204.288 E18.79869
G1 X165.777 Y204.429 E18.89259
G1 X164.967 Y204.497 E18.96821
G1 X163.958 Y204.525 E19.06212
G1 X163.146 Y204.502 E19.13776
G1 X162.140 Y204.416 E19.23166
G1 X161.335 Y204.302 E19.30731
G1 X160.345 Y204.105 E19.40122
G1 X159.558 Y203.902 E19.47687
G1 X158.596 Y203.595 E19.57077
G1 X157.837 Y203.305 E19.64640
G1 X156.916 Y202.892 E19.74031
G1 X156.194 Y202.518 E19.81600
G1 X155.324 Y202.005 E19.90990
G1 X154.649 Y201.554 E19.98550
G1 X153.843 Y200.946 E20.07940
G1 X153.222 Y200.421 E20.15508
G1 X152.489 Y199.728 E20.24899
G1 X152.132 Y199.366 E20.29621
G1 X130.140 Y175.426 E23.32097
G1 X129.285 Y174.423 E23.44352
G1 X128.797 Y173.774 E23.51914
G1 X128.235 Y172.933 E23.61324
G1 X127.822 Y172.232 E23.68890
G1 X127.358 Y171.333 E23.78301
G1 X127.027 Y170.591 E23.85864
G1 X126.666 Y169.646 E23.95274
G1 X126.420 Y168.872 E24.02838
G1 X126.168 Y167.892 E24.12248
G1 X126.009 Y167.095 E24.19813
G1 X125.868 Y166.093 E24.29222
G1 X125.800 Y165.283 E24.36787
G1 X125.772 Y164.272 E24.46197
G1 X125.795 Y163.460 E24.53761
G1 X125.881 Y162.452 E24.63171
G1 X125.995 Y161.647 E24.70735
G1 X126.193 Y160.655 E24.80145
G1 X126.396 Y159.868 E24.87710
G1 X126.703 Y158.904 E24.97120
G1 X126.994 Y158.145 E25.04684
G1 X127.407 Y157.222 E25.14094
G1 X127.781 Y156.500 E25.21659
G1 X128.295 Y155.629 E25.31069
G1 X128.747 Y154.953 E25.38633
G1 X129.355 Y154.145 E25.48043
G1 X129.880 Y153.524 E25.55610
G1 X130.752 Y152.611 E25.67356
G1 X131.229 Y153.017 F7800.000
G1 F1800.000
G1 X154.546 Y130.402 E28.69586
G1 X155.657 Y129.444 E28.83240
G1 X156.251 Y128.997 E28.90155
G1 X157.090 Y128.437 E28.99545
G1 X157.731 Y128.059 E29.06458
G1 X158.627 Y127.597 E29.15849
G1 X159.306 Y127.293 E29.22763
G1 X160.249 Y126.934 E29.32153
G1 X160.956 Y126.709 E29.39062
G1 X161.934 Y126.457 E29.48452
G1 X162.663 Y126.312 E29.55369
G1 X163.662 Y126.171 E29.64760
G1 X164.402 Y126.109 E29.71670
G1 X165.411 Y126.081 E29.81061
G1 X166.154 Y126.103 E29.87972
G1 X167.159 Y126.188 E29.97363
G1 X167.895 Y126.292 E30.04276
G1 X168.885 Y126.489 E30.13666
G1 X169.604 Y126.675 E30.20579
G1 X170.566 Y126.982 E30.29970
G1 X171.260 Y127.247 E30.36881
G1 X172.181 Y127.660 E30.46271
G1 X172.841 Y128.001 E30.53187
G1 X173.710 Y128.514 E30.62578
G1 X174.327 Y128.927 E30.69487
G1 X175.133 Y129.534 E30.78877
G1 X175.701 Y130.014 E30.85792
G1 X176.692 Y130.966 E30.98580
G1 X199.334 Y154.888 E34.05048
G1 X200.238 Y155.942 E34.17971
G1 X200.685 Y156.536 E34.24887
G1 X201.246 Y157.377 E34.34297
G1 X201.623 Y158.017 E34.41207
G1 X202.087 Y158.916 E34.50617
G1 X202.390 Y159.594 E34.57530
G1 X202.751 Y160.539 E34.66940
G1 X202.976 Y161.247 E34.73853
G1 X203.228 Y162.227 E34.83263
G1 X203.373 Y162.955 E34.90174
G1 X203.514 Y163.957 E34.99584
G1 X203.576 Y164.697 E35.06498
G1 X203.604 Y165.708 E35.15908
G1 X203.583 Y166.451 E35.22820
G1 X203.498 Y167.458 E35.32230
G1 X203.393 Y168.194 E35.39142
G1 X203.196 Y169.186 E35.48552
G1 X203.010 Y169.905 E35.55465
G1 X202.702 Y170.868 E35.64875
G1 X202.437 Y171.562 E35.71787
G1 X202.024 Y172.485 E35.81197
G1 X201.682 Y173.145 E35.88109
G1 X201.168 Y174.016 E35.97519
G1 X200.755 Y174.634 E36.04431
G1 X200.147 Y175.442 E36.13841
G1 X199.667 Y176.009 E36.20753
G1 X198.709 Y177.007 E36.33630
G1 X174.743 Y199.640 E39.40341
G1 X173.695 Y200.538 E39.53177
G1 X173.101 Y200.984 E39.60091
G1 X172.262 Y201.545 E39.69482
G1 X171.622 Y201.922 E39.76395
G1 X170.725 Y202.385 E39.85785
G1 X170.046 Y202.688 E39.92699
G1 X169.103 Y203.048 E40.02089
G1 X168.396 Y203.273 E40.08998
G1 X167.418 Y203.525 E40.18389
G1 X166.689 Y203.669 E40.25305
G1 X165.690 Y203.810 E40.34696
G1 X164.950 Y203.872 E40.41606
G1 X163.941 Y203.900 E40.50997
G1 X163.198 Y203.879 E40.57909
G1 X162.193 Y203.794 E40.67299
G1 X161.457 Y203.690 E40.74212
G1 X160.467 Y203.492 E40.83603
G1 X159.748 Y203.306 E40.90515
G1 X158.786 Y203.000 E40.99906
G1 X158.093 Y202.734 E41.06817
G1 X157.172 Y202.322 E41.16207
G1 X156.511 Y201.980 E41.23124
G1 X155.642 Y201.467 E41.32515
G1 X155.025 Y201.054 E41.39423
G1 X154.219 Y200.447 E41.48813
G1 X153.651 Y199.968 E41.55729
G1 X152.918 Y199.274 E41.65119
G1 X152.593 Y198.944 E41.69435
G1 X130.600 Y175.003 E44.71911
G1 X129.763 Y174.020 E44.83920
G1 X129.317 Y173.427 E44.90830
G1 X128.755 Y172.586 E45.00240
G1 X128.378 Y171.946 E45.07155
G1 X127.914 Y171.047 E45.16565
G1 X127.611 Y170.369 E45.23477
G1 X127.250 Y169.424 E45.32886
G1 X127.025 Y168.716 E45.39798
G1 X126.773 Y167.736 E45.49208
G1 X126.628 Y167.008 E45.56121
G1 X126.487 Y166.006 E45.65531
G1 X126.425 Y165.266 E45.72443
G1 X126.397 Y164.255 E45.81853
G1 X126.418 Y163.512 E45.88765
G1 X126.504 Y162.505 E45.98175
G1 X126.608 Y161.769 E46.05087
G1 X126.805 Y160.777 E46.14498
G1 X126.991 Y160.058 E46.21411
G1 X127.299 Y159.094 E46.30821
G1 X127.564 Y158.401 E46.37733
G1 X127.977 Y157.478 E46.47143
G1 X128.319 Y156.818 E46.54055
G1 X128.833 Y155.947 E46.63465
G1 X129.246 Y155.329 E46.70377
G1 X129.854 Y154.521 E46.79787
G1 X130.334 Y153.954 E46.86702
G1 X131.187 Y153.060 E46.98198
G1 E44.98198 F2400.00000
G92 E0
G1 X169.953 Y194.569 F7800.000
G1 E4.00000 F2400.00000
G1 F1800.000
G1 X169.212 Y195.194 E4.09025
G1 X168.405 Y195.733 E4.18050
G1 X167.543 Y196.178 E4.27075
G1 X166.637 Y196.523 E4.36100
G1 X165.698 Y196.765 E4.45124
G1 X164.737 Y196.900 E4.54149
G1 X163.768 Y196.927 E4.63174
G1 X162.801 Y196.845 E4.72199
G1 X161.850 Y196.656 E4.81224
G1 X160.926 Y196.361 E4.90249
G1 X160.041 Y195.964 E4.99274
G1 X159.205 Y195.471 E5.08299
G1 X158.431 Y194.888 E5.17323
G1 X157.726 Y194.221 E5.26348
G1 X157.101 Y193.480 E5.35373
G1 X156.562 Y192.673 E5.44398
G1 X156.117 Y191.811 E5.53423
G1 X155.772 Y190.905 E5.62447
G1 X155.530 Y189.965 E5.71473
G1 X155.394 Y189.005 E5.80497
G1 X155.367 Y188.026 E5.89614
G1 X155.490 Y183.728 E6.29617
G1 X155.464 Y182.654 E6.39612
G1 X155.325 Y181.580 E6.49692
G1 X155.074 Y180.525 E6.59773
G1 X154.715 Y179.503 E6.69853
G1 X154.251 Y178.525 E6.79933
G1 X153.687 Y177.599 E6.90014
G1 X153.029 Y176.738 E7.00095
G1 X152.285 Y175.951 E7.10175
G1 X151.463 Y175.245 E7.20255
G1 X150.572 Y174.630 E7.30336
G1 X149.621 Y174.111 E7.40416
G1 X148.621 Y173.694 E7.50497
G1 X147.583 Y173.384 E7.60577
G1 X146.518 Y173.184 E7.70658
G1 X145.447 Y173.097 E7.80653
G1 X141.798 Y172.993 E8.14622
G1 X140.819 Y172.911 E8.23758
G1 X139.866 Y172.721 E8.32802
G1 X138.940 Y172.425 E8.41846
G1 X138.053 Y172.028 E8.50890
G1 X137.216 Y171.533 E8.59935
G1 X136.439 Y170.949 E8.68979
G1 X135.733 Y170.281 E8.78023
G1 X135.106 Y169.538 E8.87067
G1 X134.567 Y168.729 E8.96111
G1 X134.121 Y167.865 E9.05156
G1 X133.775 Y166.957 E9.14200
G1 X133.532 Y166.016 E9.23244
G1 X133.397 Y165.053 E9.32288
G1 X133.370 Y164.082 E9.41332
G1 X133.452 Y163.113 E9.50376
G1 X133.642 Y162.160 E9.59421
G1 X133.937 Y161.234 E9.68465
G1 X134.335 Y160.347 E9.77509
G1 X134.829 Y159.510 E9.86553
G1 X135.414 Y158.733 E9.95597
G1 X136.082 Y158.027 E10.04641
G1 X136.825 Y157.400 E10.13685
G1 X137.633 Y156.861 E10.22729
G1 X138.497 Y156.415 E10.31774
G1 X139.405 Y156.069 E10.40818
G1 X140.346 Y155.826 E10.49862
G1 X141.309 Y155.691 E10.58906
G1 X142.290 Y155.664 E10.68042
G1 X145.940 Y155.767 E11.02011
G1 X147.014 Y155.742 E11.12006
G1 X148.088 Y155.603 E11.22087
G1 X149.142 Y155.352 E11.32167
G1 X150.164 Y154.993 E11.42248
G1 X151.143 Y154.529 E11.52328
G1 X152.068 Y153.965 E11.62409
G1 X152.929 Y153.307 E11.72489
G1 X153.717 Y152.563 E11.82569
G1 X154.422 Y151.741 E11.92650
G1 X155.038 Y150.849 E12.02730
G1 X155.557 Y149.898 E12.12811
G1 X155.974 Y148.898 E12.22891
G1 X156.284 Y147.860 E12.32972
G1 X156.484 Y146.795 E12.43052
G1 X156.571 Y145.725 E12.53047
G1 X156.692 Y141.464 E12.92706
G1 X156.775 Y140.488 E13.01823
G1 X156.964 Y139.536 E13.10848
G1 X157.259 Y138.612 E13.19873
G1 X157.656 Y137.727 E13.28897
G1 X158.149 Y136.892 E13.37922
G1 X158.732 Y136.117 E13.46947
G1 X159.399 Y135.413 E13.55972
G1 X160.140 Y134.787 E13.64997
G1 X160.947 Y134.249 E13.74022
G1 X161.809 Y133.804 E13.83047
G1 X162.715 Y133.458 E13.92072
G1 X163.654 Y133.216 E14.01096
G1 X164.615 Y133.081 E14.10121
G1 X165.585 Y133.054 E14.19146
G1 X166.551 Y133.136 E14.28171
G1 X167.502 Y133.326 E14.37196
G1 X168.426 Y133.621 E14.46221
G1 X169.311 Y134.017 E14.55245
G1 X170.147 Y134.510 E14.64270
G1 X170.922 Y135.094 E14.73295
G1 X171.626 Y135.760 E14.82320
G1 X172.252 Y136.502 E14.91345
G1 X172.790 Y137.308 E15.00370
G1 X173.235 Y138.170 E15.09395
G1 X173.581 Y139.077 E15.18419
G1 X173.822 Y140.016 E15.27445
G1 X173.958 Y140.976 E15.36469
G1 X173.985 Y141.956 E15.45586
G1 X173.864 Y146.217 E15.85245
G1 X173.889 Y147.291 E15.95240
G1 X174.028 Y148.365 E16.05320
G1 X174.279 Y149.419 E16.15401
G1 X174.638 Y150.441 E16.25481
G1 X175.102 Y151.420 E16.35562
G1 X175.666 Y152.345 E16.45642
G1 X176.324 Y153.206 E16.55723
G1 X177.068 Y153.994 E16.65803
G1 X177.890 Y154.699 E16.75884
G1 X178.782 Y155.315 E16.85964
G1 X179.733 Y155.834 E16.96045
G1 X180.733 Y156.251 E17.06125
G1 X181.771 Y156.561 E17.16205
G1 X182.836 Y156.761 E17.26286
G1 X183.906 Y156.847 E17.36281
G1 X188.204 Y156.970 E17.76281
G1 X189.182 Y157.052 E17.85417
G1 X190.135 Y157.242 E17.94461
G1 X191.061 Y157.538 E18.03505
G1 X191.948 Y157.935 E18.12549
G1 X192.785 Y158.429 E18.21593
G1 X193.562 Y159.014 E18.30637
G1 X194.268 Y159.682 E18.39682
G1 X194.895 Y160.425 E18.48726
G1 X195.434 Y161.234 E18.57770
G1 X195.880 Y162.097 E18.66814
G1 X196.226 Y163.006 E18.75858
G1 X196.469 Y163.947 E18.84902
G1 X196.604 Y164.910 E18.93946
G1 X196.631 Y165.881 E19.02991
G1 X196.549 Y166.850 E19.12035
G1 X196.359 Y167.803 E19.21079
G1 X196.064 Y168.729 E19.30123
G1 X195.666 Y169.616 E19.39167
G1 X195.172 Y170.453 E19.48211
G1 X194.587 Y171.230 E19.57255
G1 X193.919 Y171.936 E19.66300
G1 X193.176 Y172.563 E19.75344
G1 X192.368 Y173.102 E19.84388
G1 X191.504 Y173.548 E19.93432
G1 X190.596 Y173.894 E20.02476
G1 X189.655 Y174.137 E20.11520
G1 X188.692 Y174.272 E20.20565
G1 X187.711 Y174.299 E20.29700
G1 X183.413 Y174.177 E20.69700
G1 X182.339 Y174.203 E20.79695
G1 X181.265 Y174.342 E20.89776
G1 X180.211 Y174.592 E20.99856
G1 X179.189 Y174.952 E21.09937
G1 X178.210 Y175.416 E21.20017
G1 X177.285 Y175.980 E21.30098
G1 X176.424 Y176.638 E21.40178
G1 X175.636 Y177.382 E21.50258
G1 X174.931 Y178.204 E21.60339
G1 X174.315 Y179.095 E21.70419
G1 X173.796 Y180.046 E21.80500
G1 X173.379 Y181.046 E21.90580
G1 X173.069 Y182.084 E22.00661
G1 X172.869 Y183.149 E22.10741
G1 X172.783 Y184.220 E22.20736
G1 X172.660 Y188.517 E22.60739
G1 X172.578 Y189.494 E22.69855
G1 X172.388 Y190.445 E22.78880
G1 X172.093 Y191.369 E22.87905
G1 X171.697 Y192.254 E22.96930
G1 X171.203 Y193.089 E23.05955
G1 X170.620 Y193.864 E23.14980
G1 X169.995 Y194.525 E23.23446
G1 X169.953 Y194.569 F7800.000
G1 X169.523 Y194.114 F7800.000
G1 F1800.000
G1 X168.836 Y194.694 E23.31818
G1 X168.087 Y195.194 E23.40190
G1 X167.288 Y195.606 E23.48562
G1 X166.447 Y195.927 E23.56934
G1 X165.576 Y196.151 E23.65306
G1 X164.685 Y196.277 E23.73677
G1 X163.785 Y196.302 E23.82049
G1 X162.889 Y196.226 E23.90421
G1 X162.006 Y196.050 E23.98793
G1 X161.149 Y195.776 E24.07165
G1 X160.328 Y195.408 E24.15536
G1 X159.553 Y194.951 E24.23908
G1 X158.835 Y194.410 E24.32280
G1 X158.181 Y193.791 E24.40652
G1 X157.601 Y193.104 E24.49024
G1 X157.101 Y192.355 E24.57395
G1 X156.689 Y191.556 E24.65768
G1 X156.368 Y190.715 E24.74139
G1 X156.144 Y189.844 E24.82511
G1 X156.018 Y188.953 E24.90883
G1 X155.993 Y188.026 E24.99510
G1 X156.115 Y183.729 E25.39501
G1 X156.088 Y182.606 E25.49954
G1 X155.940 Y181.467 E25.60644
G1 X155.675 Y180.349 E25.71334
G1 X155.294 Y179.265 E25.82023
G1 X154.801 Y178.227 E25.92713
G1 X154.203 Y177.246 E26.03403
G1 X153.506 Y176.333 E26.14093
G1 X152.717 Y175.498 E26.24783
G1 X151.845 Y174.750 E26.35472
G1 X150.900 Y174.097 E26.46163
G1 X149.891 Y173.546 E26.56852
G1 X148.831 Y173.104 E26.67542
G1 X147.730 Y172.776 E26.78232
G1 X146.601 Y172.564 E26.88922
G1 X145.481 Y172.473 E26.99374
G1 X141.833 Y172.369 E27.33333
G1 X140.907 Y172.291 E27.41979
G1 X140.022 Y172.115 E27.50370
G1 X139.163 Y171.840 E27.58761
G1 X138.340 Y171.472 E27.67152
G1 X137.564 Y171.013 E27.75543
G1 X136.843 Y170.471 E27.83935
G1 X136.188 Y169.851 E27.92325
G1 X135.607 Y169.162 E28.00717
G1 X135.106 Y168.411 E28.09108
G1 X134.692 Y167.610 E28.17499
G1 X134.371 Y166.767 E28.25890
G1 X134.146 Y165.894 E28.34281
G1 X134.020 Y165.001 E28.42672
G1 X133.995 Y164.100 E28.51063
G1 X134.072 Y163.201 E28.59454
G1 X134.248 Y162.316 E28.67846
G1 X134.522 Y161.457 E28.76237
G1 X134.891 Y160.634 E28.84628
G1 X135.349 Y159.858 E28.93019
G1 X135.892 Y159.137 E29.01410
G1 X136.512 Y158.482 E29.09801
G1 X137.201 Y157.901 E29.18192
G1 X137.951 Y157.400 E29.26583
G1 X138.752 Y156.986 E29.34974
G1 X139.595 Y156.665 E29.43365
G1 X140.468 Y156.440 E29.51757
G1 X141.361 Y156.314 E29.60148
G1 X142.290 Y156.289 E29.68794
G1 X145.939 Y156.392 E30.02753
G1 X147.062 Y156.366 E30.13205
G1 X148.201 Y156.218 E30.23894
G1 X149.319 Y155.952 E30.34584
G1 X150.403 Y155.571 E30.45274
G1 X151.441 Y155.079 E30.55964
G1 X152.422 Y154.481 E30.66654
G1 X153.335 Y153.784 E30.77344
G1 X154.170 Y152.995 E30.88034
G1 X154.918 Y152.123 E30.98723
G1 X155.571 Y151.177 E31.09413
G1 X156.121 Y150.169 E31.20103
G1 X156.563 Y149.109 E31.30793
